src/lib/packages/icons/src/assets/filled/chat-search.svg

<svg width="24" height="24" viewBox="0 0 24 24" fill="none" xmlns="http://www.w3.org/2000/svg">
<path d="M13.583 11.417C13.583 12.612 12.611 13.584 11.417 13.584C10.222 13.584 9.25002 12.612 9.25002 11.417C9.25002 10.222 10.222 9.25 11.417 9.25C12.611 9.25 13.583 10.222 13.583 11.417ZM21 11.999C21 16.969 16.971 20.998 12.001 20.998C10.661 20.998 9.38099 20.698 8.24099 20.168C7.80099 19.958 7.29107 19.958 6.82107 20.108L4.32107 20.948C3.54107 21.208 2.79105 20.458 3.05105 19.678L3.89113 17.178C4.04113 16.708 4.04108 16.198 3.83108 15.758C3.30108 14.618 3.001 13.338 3.001 11.999C3.001 7.02902 7.03002 3 12 3C16.97 3 21 7.02902 21 11.999ZM16.0301 14.97L14.48 13.421C14.858 12.844 15.083 12.157 15.083 11.418C15.083 9.39603 13.438 7.75098 11.417 7.75098C9.39501 7.75098 7.75002 9.39603 7.75002 11.418C7.75002 13.44 9.39501 15.085 11.417 15.085C12.157 15.085 12.8429 14.861 13.4199 14.483L14.97 16.032C15.116 16.178 15.308 16.252 15.5 16.252C15.692 16.252 15.8841 16.179 16.0301 16.032C16.3231 15.737 16.3231 15.262 16.0301 14.97Z" fill="currentColor"/>
</svg>

<svg xmlns="http://www.w3.org/2000/svg" width="24" height="24" fill="none"><path fill="currentColor" d="M13.583 11.417a2.17 2.17 0 0 1-2.166 2.167 2.17 2.17 0 0 1-2.167-2.167 2.17 2.17 0 0 1 2.167-2.167 2.17 2.17 0 0 1 2.166 2.167Zm7.417.582a8.999 8.999 0 0 1-8.999 8.999c-1.34 0-2.62-.3-3.76-.83-.44-.21-.95-.21-1.42-.06l-2.5.84c-.78.26-1.53-.49-1.27-1.27l.84-2.5c.15-.47.15-.98-.06-1.42a8.917 8.917 0 0 1-.83-3.759 9 9 0 0 1 17.999 0Zm-4.97 2.971-1.55-1.549a3.645 3.645 0 0 0 .603-2.003 3.671 3.671 0 0 0-3.666-3.667 3.671 3.671 0 0 0-3.667 3.667 3.671 3.671 0 0 0 3.667 3.667c.74 0 1.426-.224 2.003-.602l1.55 1.549a.748.748 0 0 0 1.06 0 .751.751 0 0 0 0-1.062Z"/></svg>
